X:42
T:Bill Cheatum
C:Traditional
A:David Peters
N:Transcribed by Kim Davis Special Thanks to Kristi Sberna
R:bluegrass
L:1/8
Q:1/4=230
M:4/4
K:A
|: "A"EF AB c2 AB | cB Ac BA FE | "D"DF Ac d2 de | fe df ed BA | "A"EF AB c2 AB | 
cB Ac BA Bc | "D"de fg af ed |1 c"E"A (3BcB "A"A4 :|2 c"E"A (3BcB "A"A2 af |: "A"ec ea "D"fd fa | 
"E"ge gb "A"a2 fg | "A"af ec fg af | "E"ec Ac B2 af | "A"ec ea "D"fd fa | "E"ge gb "A"a2 fg | 
"A"af ec fg af |1 e"E"c (3BcB "A"A2 af :|2 e"E"c (3BcB "A"A4 |]

